X:1
T:Miss Gunning's
S:Thompson's 1st coll'n of 200 country dances
S:via c 1780 reissue of c 1758 collection
M:C|
L:1/8
Z:Transcribed by Bruce Olson
K:A
c2BA (G/A/B) ED|CEAc BE E2|c2BG G/A/B Ed|(c/d/e) EB|cAA2::\
aAaA aAA2|(G/A/B) "tr"B2 (G/A/B) "tr"B2|aAaA aAA2|c2BA EAA2::\
ce"tr"fe ce"tr"fe|fedc BE "tr"E2|(ce)"tr"fe ce"tr"fe|\
fefg aAA2:|]
